X:1
T:Vive Deo
T:Vive Deo
T:Louys Pieton
C:Louys Pieton
%%score [ 1 2 3 4 ]
L:1/8
Q:1/4=120
M:2/2
K:F
V:1 treble nm="Soprano" snm="S"
V:2 treble nm="Alto" snm="A"
V:3 treble-8 nm="Tenor" snm="T"
V:4 bass nm="Bass" snm="B"
V:1
 G4 B2 c2 | d3 c de f2- | f2 ed c3 d | e2 d4 cB | A4 F3 G | A2 B3 A A2 | G2 F3 G A2- | A2 GF E4 | %8
w: Vi- ve De-|||o sem- * *|* per, _|_ sem- * *||* * * per,|
 z2 G2 B2 c2 | d3 c de f2- | f2 ed c2 d2- | d2 cB AF A2- | A2 GF E2 F2- | FD d3 c c2 | d3 c/B/ A4 | %15
w: vi- ve De-||* * * o sem-|||* per, sem- * *|* * * per,|
 z8 | z2 d4 c2 | f2 _e2 d3 c | B2 c2 F4- | F4 z4 | z8 | z4 z2 d2 | d2 f2 c2 e2- | ed d4 c2 | %24
w: |gens in-|sen- sa- * *|* * ta,|_||nec|un- quam vi- ve|_ _ ho- mi-|
 d4 z4 | z2 d4 d2 | c3 B/A/ B2 B2 | A3 B c2 d2 | G4 z2 A2 | cBGA B2 A2- | AG G4 F2 | G4 z2 A2- | %32
w: ni,|fac quae|po- * * * stu-|lo, quae po- stu-|lo, vi-|ve _ _ _ _ De-||o. Nul-|
 AA A2 G2 c2 | B2 A3 GAB | c3 B c2 d2 | B3 c dA d2- | dc c2 d4 | z8 | z4 z2 G2 | A2 c2 B2 A2 | %40
w: * la fi- des ho-|mi- * * * *|* * ni, ho-||* * mi- ni,||nun-|quam mor- ta- li-|
 G2 B2 A2 G2- | GF F2 GFED | E4 z2 G2- | G2 F2 B3 c | de f2 e2 d2- | d2 c2 B2 A2- | AG G2 A4- | %47
w: bus ul- * *||lis, fi-|* den- * *|* * * dum, fi-|* den- * *|* * dum est,|
 A4 z2 A2- | A2 B2 A2 G2 | A4 F4 | G3 A B2 c2 | A4 B4- | B4 z2 B2 | c3 B AG B2- | %54
w: _ qua-|* re sup- pli-|co vi-|ve _ _ _|De- o,|_ vi-|ve _ _ _ De-|
"^#""^#" BA G3 F F2 | G8 || z8 | d4 G2 B2 | A3 G/A/ BA d2- | dc c2 d2 B2 | AG G3 F F2 | G4 z2 A2 | %62
w: |o.||Vi- ve De-||* * * o, vi-|ve- * De- * *|o, vi-|
 D2 F2 E3 D/E/ | FE A3 G G2 | A2 c2 B4 | A8 | z8 | z8 | z8 | z8 | z2 A2 c4 | B2 G2 A3 B | %72
w: ve De- * * *|* * * * o,|vi- ve De-|o,|||||et to-|tam cir- ca _|
 c2 B4 AG | A2 B3 A A2- | AG G2 A4 | F2 G2 A4 | B2 c2 F2 c2 | d2 B2 A4 | z2 A4 F2 | A2 c2 B2 A2 | %80
w: _ hunc _ _|spem po- * *|* * ni- to,|et to- tam|cir- ca hunc spem|po- ni- to,|nus- quam|in se spe- ran-|
 G2 A3 A A2 | B2 A3 Bcd | e2 f4 e2 | d2 c3 B B2 | c4 z2 A2- | AA A2 F2 B2 | A2 d3 c c2 | %87
w: tes de- se- rit|i- pse _ _ _|_ De- *||us, de-|* se- rit i- *|pse De- * *|
 d4 z2 d2- | dd c2 d2 f2 | e2 d3 c A2 | BcdB c2 B2- | BG A2 B2 c2- | cB B2 A4- | A4 z4 | %94
w: us, vi-|* ve De- o quis-|quis fu- * *|||* * e- ris,|_|
 z4 z2 d2- | d2 c2 B2 A2 | GF B3 A A2 | Bc d3 c B2- | BA A2 B3 c | de f4 ed | c4 z2 B2 | c4 d3 e | %102
w: nec|_ vi- ve cre-|a- * * * tis|_ _ vi- * *|* * ve, cre _|_ _ a- * *|tis, vi-|ve cre- *|
 f2 e3 d d2- | d2 cB c3 d/e/ | f2 e3 d d2- | d2 c2 d4 | z2 d4 c2 | A2 c2 B2 A2 | G4 A4 | z2 c4 B2 | %110
w: * a- * to-|||* * ri,|nec fi-|ne, vi- ve De-|o, _|nec fi-|
 A2 G2 B2 AB | cB/c/ d3 c c2 | d2 D2 E2 F2 | GE F3 D G2- |"^#" G2 F2 G4- | G8 |] %116
w: ne, vi- ve De- *||o, vi- ve De-||* * o.|_|
V:2
 z8 | z4 D4 | F2 G2 A3 F | GA B4 AG | F3 G/A/ B2 A2- | A2 GF E2 F2 | B,3 C DE F2- | FE D3 C C2 | %8
w: |Vi-|ve De- * *||o _ _ sem- *||per, _ _ _ sem-||
 D4 G,4 | z4 z2 D2 | F2 G2 A2 B2- | B2 AG F3 G | A2 B3 A A2- | AG G2 A4 | F4 z2 A2- | A2 G2 B2 A2 | %16
w: per, _|vi-|ve De- * *||o sem- * *||per, gens|_ in- sen- sa-|
 G4 z2 A2- | A2 G2 B2 A2 | G4 z2 A2 | A2 B2 F2 A2- | AG G4 F2- | FE E2 F2 G2 | A6 G2 | BAFG A4 | %24
w: ta, gens|_ in- sen- sa-|ta, nec|un- quam vi- ve|_ _ ho- *|* * mi- ni, ho-|* mi-|ni, _ _ _ _|
 z2 G4 G2 | F3 G AF B2- | BA A3 G G2- | GF F2 E2 D2- | DCDB, C2 D2- | DC C2 D2 F2 | E2 C2 D4 | %31
w: fac quae|po- * * * *||* * * stu- lo,|_ _ _ _ quae po-|* * stu- lo vi-|ve De- o.|
 z2 D3 D D2 | C2 F2 E3 C | DE F3 EFD | E2 A2 G4- | G4 z2 G2 | A2 c2 B2 A2 | G2 B2 A2 G2- | %38
w: Nul- la fi-|des ho- * *||* mi- ni,|_ nun-|quam mor- ta- li-|bus ul- * *|
 GF F2 GFED | E4 z2 D2 | E2 G2 F2 E2 | D2 F2 ED D2- | D2 C2 D4 | z4 z2 G2- | G2 F2 B4 | %45
w: |lis, nun-|quam mor- ta- li-|bus ul- * * *|* * lis,|fi-|* den- *|
 A3 G FE F2- | F2 ED C2 D2- | DC C2 D4 | z2 D4 E2 | D2 C2 D3 C | B,2 C2 G,2 G2- | %51
w: ||* * dum est,|qua- re|sup- pli- * *|* * co vi-|
"^#""^#" GF F2 G4 | z2 F4 G2 | F2 E2 F2 D2- | DC C2 D4 | D8 || G4 C2 E2 | DEFD EF G2- | %58
w: * ve De- o,|qua- re|sup- pli- co vi-|* * ve De-|o.|Vi- ve De-|o, _ _ _ _ _ vi-|
 GF F2 GFED | E4 D2 B,2 | CB,A,G, A,4 | z2 D2 E2 F2 | B,C D3 C C2 | D2 F2 E2 D2 | E2 F2 D3 E | %65
w: * * ve De- * * *|o, vi- ve|De- * * * o,|vi- ve De-|o, _ vi- ve De-|o, vi- ve De-|* o, vi- *|
 F2 ED E2 F2 | G4 F4 | z8 | z8 | z4 z2 D2 | F4 E2 C2 | D3 E F2 E2- | E2 DC DE F2- | FE D2 C2 A,2 | %74
w: * ve _ De- *|o, _|||et|to- tam cir-|ca _ _ hunc|_ _ _ _ _ _|* * * * spem|
 B,2 C2 F,2 C2 | D4 E2 F2- | FE E2 D2 C2 | B,A, D3 C C2 | D3 C A,2 B,2 | A,4 z4 | z8 | z8 | %82
w: po- ni- to, et|to- tam cir-|* * ca hunc _|_ _ spem _ po-|* * * ni-|to,|||
 z2 D4 C2 | D2 F2 E2 D2 | C4 E3 E | F2 E2 D2 G2- | GFFG/A/ B2 G2 | A2 B3 A A2- | A2 G2 A4 | %89
w: nus- quam|in se spe- ran-|tes de- se-|rit i- pse De-|* * * * * * us,|i- pse _ De-|* * us,|
 z2 G3 G F2 | G2 B2 A2 G2- | GF F2 G2 A2- | AG GF E2 F2- | FEFD E4 | z8 | z2 G4 F2 | E2 D2 E2 F2 | %97
w: vi- ve De-|o quis- quis fu-|* * e- ris, vi-|* * ve _ _ De-|* * * * o,||nec vi-|ve cre- a- tis,|
 G2 F3 E E2 | F4 D3 E | FG A3 F B2- | BA A3 G G2 | A4 D4 | z4 z2 F2- | F2 G2 A3 B | c2 B2 A2 G2 | %105
w: cre- a- * *|tis, nec _|_ _ _ _ vi-|* * ve _ cre-|a- tis,|vi-|* ve cre- a-|to- ri, vi- ve|
 A3 c B4 | A8 | z2 G4 F2 | E2 G2 F2 E2 | D2 C2 G4 | z2 G4 F2 | E2 D2 F2 E2 | D3 C B,2 A,2 | %113
w: cre- a- to-|ri,|nec fi-|ne, vi- ve De-|* * o,|nec fi-|ne vi- ve De-|o, _ _ vi-|
 C2 D3 C C2 | D4 D4- | D8 |] %116
w: * * * ve|De- o.|_|
V:3
 z8 | z8 | z8 | G4 B2 c2 | d3 c de f2- | f2 ed c3 d | e2 d4 cB | A2 B2 c2 A2- | A2 d3 c c2 | %9
w: |||Vi- ve De-||* * * o _|_ sem- * *|* * * per,|_ sem- * *|
 B2 A2 B4- | B4 z2 G2 | B2 c2 d2 f2- | f2 ed c2 c2 | d4 e4 | z2 d4 c2 | f2 e2 d2 f2 | e2 d2 e2 fe | %17
w: * * per,|_ vi-|ve De- * *|* * * o sem-|per, _|gens in-|sen- sa- ta, gens|in- sen- sa- * *|
 dc B3 c d2 | dc c2 d4 | z2 d2 d2 f2 | c2 e3 d d2- | dc c2 d2 B2 | A4 e2 e2 | g2 d2 f2 e2- | %24
w: |* * * ta,|nec un- quam|vi- * ve ho-|* * * * mi-|ni, nec un-|quam vi- ve ho-|
 ed d4 c2 | d8 | z4 z2 d2- | d2 d2 c2 BA | B2 B2 A4 | z4 z2 A2 | cBGA B2 A2 | B3 A/G/ F4- | F4 z4 | %33
w: * * * mi-|ni,|fac|_ quae po- * *|* stu- lo,|vi-|ve _ _ _ _ De-|* * * o.|_|
 z2 d3 d d2 | c2 f2 e2 d2- | dcde f2 d2 | e4 z2 d2 | e2 g2 f2 e2 | d2 f2 ed d2- | dc c2 d4 | %40
w: Nul- la fi-|des ho- * *|* * * * * mi-|ni, nun-|quam mor- ta- li-|bus ul- * * *|* * * lis,|
 z2 G2 A2 c2 | B2 A2 G2 B2 | A4 z4 | z8 | z4 g4 | f2 e2 d3 e | fd g3 f f2- | fe e2 f4- | f4 z4 | %49
w: nun- quam mor-|ta- li- bus ul-|lis,||fi-|den- * * *||* * dum est,|_|
 z4 z2 d2- | d2 e2 d2 c2 | d4 G3 A | Bcdc c2 d2- | dc c2 d4 | G4 A4 | G8 || z8 | z8 | d4 G2 B2 | %59
w: qua-|* re sup- pli-|co vi- *|* * * * * ve|_ _ _ _|De- *|o.|||Vi- ve De-|
 A3 G/A/ BA d2- | dc c2 d2 d2 | G2 B2 A4 | z8 | z2 d2 G2 B2 | A3 G/A/ BA d2- | d2 cB c3 d | %66
w: o, _ _ _ _ vi-|* ve De- o, vi-|ve De- o,||vi- ve De-|o, _ _ _ _ vi-|* ve _ De- *|
 _e4 z2 d2 | f4 e2 c2 | d2 e2 f2 e2- | e2 dc de f2- | fe d3 c c2 | G2 B2 A4 | z4 z2 d2 | f4 e2 c2 | %74
w: o, et|to- tam cir-|ca hunc spem- po-|||* ni- to,|et|to- tam cir-|
 d2 e2 f2 e2- | ed d2 c2 d2- | dc c2 d2 e2 | f2 g2 e4 | f4 z2 d2- | d2 c2 d2 f2 | e2 d2 c2 d2- | %81
w: ca hunc spem po-|||* * ni-|to, nus-|* quam in se|spe- ran- tes de-|
 dd d2 f2 e2- | e2 a3 g g2- | gf f2 g3 f | ed e2 c4 | z4 z2 d2- | dd d2 B2 e2 | d2 GA Bcde | %88
w: * se- rit i- pse|_ De _ _|_ _ _ _ _|* * * us,|de-|* se- rit i- pse|De- us, _ _ _ _ _|
 f2 g3 f f2 | g3 f/e/ d4- | d4 z2 d2- | dd c2 d2 f2 | e2 d3 c c2 | d4 z2 g2- | g2 f2 e2 d2 | %95
w: _ _ i- pse|De- * * us,|_ vi|_ ve De- o quis-|quis fu- * e-|ris, nec|_ vi- ve cre-|
 B2 c2 d4 | z2 B2 c2 d2 | G2 A2 B4 | c4 z2 B2- | B2 c2 d3 e | f2 e3 d d2- | dccB/A/ B4 | A4 z4 | %103
w: a- * tis,|nec vi- ve|cre- a- tis,|_ vi|_ ve cre- a-|to- * * *||ri,|
 d4 f2 a2- | a2 g2 f2 d2 | e4 z2 g2- | g2 f2 d2 f2 | f2 e2 d4 | z4 z2 g2- | g2 f2 e2 d2 | %110
w: vi- ve cre-|* a- to- *|ri, nec|_ fi- ne, vi-|ve De- o,|nec|_ fi- ne, vi-|
 f2 e2 d3 c | c2 B2 ABcA | B4 z2 c2- | c2 B2 A2 G2 | B2 A2 G4- | G8 |] %116
w: ve De- * *||o, nec|_ fi- ne, vi-|ve De- o.|_|
V:4
 z8 | z8 | z8 | z8 | z4 D,4 | F,2 G,2 A,3 F, | G,A, B,4 A,G, | F,2 G,2 A,3 G, | F,2 G,2 _E,4 | %9
w: ||||Vi-|ve De- * *||o sem- * *||
 D,4 z4 | z8 | z4 z2 D,2 | F,2 G,2 A,4 | B,4 A,4 | D,3 E, F,4 | z2 G,4 F,2 | C2 B,2 A,3 G, | %17
w: per,||vi-|ve De- o|sem- *|* * per,|gens in-|sen- sa- ta, _|
 F,2 G,3 F, D,2 |"^b" E,4 D,4- | D,4 z4 | z2 G,2 G,2 B,2 | F,2 A,3 G, G,2- | G,2 F,G, A,B, C2 | %23
w: _ in- * sen-|sa- ta,|_|nec un- quam|vi- ve _ ho-||
 G,2 B,2 A,3 G, | F,2 G,2 _E,4 | D,3 E, F,2 G,2- |"^#" G,2 F,2 G,3 F, | D,4 z2 G,2- | %28
w: mi- * ni, _|_ vi- ve|ho- * * *|* mi- ni, _|_ fac|
 G,2 G,2 F,3 E,/D,/ | E,2 E,2 D,4 | C,2 E,2 D,4 | G,3 F,/E,/ D,E,F,G, | A,2 F,2 C4 | z8 | %34
w: _ quae po- * *|* stu- lo,|vi- ve De-||* * o.||
 z4 z2 G,2- | G,G, G,2 F,2 B,2 | A,4 D,4 | z2 G,2 A,2 C2 | B,2 A,2 G,2 B,2 | A,4 z4 | z8 | z8 | %42
w: Nul-|* la fi- des ho-|mi- ni,|nun- quam mor-|ta- li- bus ul-|lis,|||
 z2 C4 B,2 | D4 G,3 A, | B,C D2 G,4 | A,4 B,4 | A,4 z4 | z8 | z8 | z8 | z8 | z4 z2 G,2- | %52
w: fi- den-|dum _ _|_ _ _ est,|_ _||||||qua|
 G,2 B,2 A,2 G,2 | A,3 G, F,2 G,2 | _E,4 D,4 | G,8 || z8 | z8 | z8 | z4 G,4 | C,2 E,2 D,E,F,D, | %61
w: _ re sup- pli-|co _ _ vi-|ve De-|o.||||Vi-|ve De- * * * *|
 E,F, G,3 F, F,2 | G,2 F,2 G,2 A,2 | D,3 C,/D,/ E,D, G,2- | G,F, F,2 G,4 | A,8 | z2 G,2 B,4 | %67
w: o, _ vi- ve De-|o, _ vi- ve|De- * * o, _ vi-|* * ve De-|o,|et to-|
 A,2 F,2 G,2 A,2 | B,2 A,4 G,F, | G,A, B,4 A,G, | F,3 G, A,4 | z8 | z8 | z8 | z4 z2 A,2 | %75
w: tam cir- ca hunc|spem po- * *||* ni- to,||||et|
 B,4 A,2 F,2 | G,2 A,2 B,2 A,2- | A,2 G,2 A,4 | D,8 | z8 | z8 | z4 z2 A,2- | A,2 F,2 A,2 C2 | %83
w: to- tam cir-|ca hunc spem po-|* * ni-|to,|||nus-|* quam in se|
 B,2 A,2 G,4 | z2 A,3 A, A,2 | D2 C2 D2 G,2 | z8 | z2 D3 D D2 |"^b" D2 E2 D4 | G,4 z4 | %90
w: spe- ran- tes,|de- se- rit|i- pse De- us,||de- se- rit|i- pse De-|us,|
 G,3 G, F,2 G,2 | B,2 A,2 G,2 F,2 | G,4 A,4 | z2 D4 C2 | B,2 A,2 G,2 F,2 | _E,4 D,4 | z2 G,4 F,2 | %97
w: vi- ve De- o|quis- qus fu- e-|ris, _|nec vi-|ve cre- a- *|* tis,|nec vi-|
 _E,2 D,2 G,4 | F,4 B,4 | z2 F,4 G,2 | A,3 B, C2 B,2- | B,A, A,3 G, G,2 | A,3 C B,4- | %103
w: ve cre- a-|* tis,|vi- ve|cre- a- to- *||* * ri,|
 B,4 z2 F,2- | F,2 G,2 A,2 B,2 | A,4 G,A,B,C | D4 z4 | z4 z2 D2- | D2 C2 A,2 C2 | B,2 A,2 G,4 | %110
w: _ vi-|* ve cre- a|to- * * * *|ri,|nec|_ fi- ne, vi-|ve De- o,|
 z8 | z8 | z2 G,4 F,2 | E,2 D,2 F,2 E,2 | D,4 G,4- | G,8 |] %116
w: ||Nec fi-|ne, vi- * ve|De- o.|_|

